assets/icons/qvision/gradient.svg

<svg xmlns="http://www.w3.org/2000/svg" height="24" viewBox="0 0 24 24" width="24"><path d="M0 0h24v24H0z" fill="none"/><path d="M11 9h2v2h-2zm-2 2h2v2H9zm4 0h2v2h-2zm2-2h2v2h-2zM7 9h2v2H7zm12-6H5c-1.1 0-2 .9-2 2v14c0 1.1.9 2 2 2h14c1.1 0 2-.9 2-2V5c0-1.1-.9-2-2-2zM9 18H7v-2h2v2zm4 0h-2v-2h2v2zm4 0h-2v-2h2v2zm2-7h-2v2h2v2h-2v-2h-2v2h-2v-2h-2v2H9v-2H7v2H5v-2h2v-2H5V5h14v6z"/></svg>

<svg width="24" height="24" viewBox="0 0 24 24" fill="none" xmlns="http://www.w3.org/2000/svg">
<g clip-path="url(#clip0_147_3487)">
<path d="M11 9H13V11H11V9ZM9 11H11V13H9V11ZM13 11H15V13H13V11ZM15 9H17V11H15V9ZM7 9H9V11H7V9ZM19 3H5C3.9 3 3 3.9 3 5V19C3 20.1 3.9 21 5 21H19C20.1 21 21 20.1 21 19V5C21 3.9 20.1 3 19 3ZM9 18H7V16H9V18ZM13 18H11V16H13V18ZM17 18H15V16H17V18ZM19 11H17V13H19V15H17V13H15V15H13V13H11V15H9V13H7V15H5V13H7V11H5V5H19V11Z" fill="#323232"/>
</g>
<defs>
<clipPath id="clip0_147_3487">
<rect width="24" height="24" fill="white"/>
</clipPath>
</defs>
</svg>
